X: 1564
T: Angst Agus Angus
R: jig
M: 6/8
K: Dmajor
DED FED|A2B AFD|EEE e2d|cdB AFE|
DED FED|GAB B2d|cdB A2G|1 FGE D3:|2 FGE D2e||
eAA cAA|efg gfe|fAA BAA|fga agf|
^gBB cBB|^gab bag|agf gfe|1 fdB A2e:|2 fdB A3||

